X:8
T:Lo Bielho
M:3/4
L:1/8
N:Assez vit
N:La Bourre 4th edition 1929, page 26
Z:Steve Mansfield www.lesession.co.uk April 2012
K:D
A B c | d2e2 d c | B2 A A B c |
d2 e2 d c | B2 A2 e e ||[M:C]f e d c d2 (3A B c |
[M:3/4]d2 e2 d c | B2 A2 e e ||[M:C]f e d c d e B c | d6 z2 |]

